static/logos/graphy-wordmark-color.svg

<svg width="100" height="21" viewBox="0 0 100 21" fill="none" xmlns="http://www.w3.org/2000/svg">
<g clip-path="url(#clip0_1_2550)">
<path fill-rule="evenodd" clip-rule="evenodd" d="M60.4189 4.42957V19.9719H63.4496V14.7652L63.605 14.8947C64.6412 15.6978 65.8846 16.1122 67.2057 16.1122C70.4696 16.1122 73.1377 13.47 73.1377 10.1802C73.1377 6.91634 70.4955 4.24824 67.2057 4.24824C65.9105 4.24824 64.6412 4.6627 63.605 5.46572L63.4496 5.59524V4.42957H60.4189ZM63.346 10.1802C63.346 8.36696 64.8226 6.89043 66.6358 6.89043C68.449 6.89043 69.9256 8.36696 69.9256 10.1802C69.9256 11.9935 68.449 13.47 66.6358 13.47C64.8226 13.47 63.346 11.9935 63.346 10.1802ZM55.1862 15.9309H58.217V4.42957H55.1862V5.59524L55.0309 5.46572C53.9947 4.6627 52.7513 4.24824 51.4302 4.24824C48.1663 4.24824 45.4982 6.89043 45.4982 10.1802C45.4982 13.4441 48.1404 16.1122 51.4302 16.1122C52.7254 16.1122 53.9947 15.6978 55.0309 14.8947L55.1862 14.7652V15.9309ZM52.026 6.89043C53.8393 6.89043 55.3158 8.36696 55.3158 10.1802C55.3158 11.9935 53.8393 13.47 52.026 13.47C50.2127 13.47 48.7362 11.9935 48.7362 10.1802C48.7362 8.36696 50.2127 6.89043 52.026 6.89043ZM10.7611 1.24338L3.74116 13.4182C3.27489 14.2212 3.55983 15.3351 4.38876 15.8014C5.19178 16.2677 6.30564 15.9827 6.77191 15.1538L10.269 9.09224L13.7918 3.00485C14.2582 2.20183 13.9732 1.08796 13.1442 0.621694C12.3413 0.155423 11.2274 0.440366 10.7611 1.24338ZM3.74116 1.24338C4.20743 0.440366 5.3213 0.155423 6.12432 0.621694C6.92734 1.08796 7.23818 2.20183 6.77191 3.00485L3.24898 9.09224C2.78271 9.89528 1.66885 10.2062 0.865824 9.73984C0.0628069 9.24768 -0.24804 8.15976 0.21823 7.3308L3.74116 1.24338ZM14.2841 7.3308C14.7503 6.52778 15.8642 6.21694 16.6672 6.6832C17.4702 7.14947 17.781 8.26336 17.3148 9.0664L13.7918 15.1797C13.3256 15.9827 12.2118 16.2935 11.4087 15.8273C10.6057 15.361 10.2949 14.2471 10.7611 13.4441L14.2841 7.3308ZM28.7902 7.38261V10.491H32.7017L32.6499 10.6206C32.4945 11.061 32.2095 11.4754 31.8728 11.7862C31.1993 12.4598 30.2667 12.8483 29.3083 12.9519C29.101 12.9778 28.8938 12.9778 28.6866 12.9778C27.4173 12.9778 26.1998 12.4857 25.2932 11.579C24.3866 10.6724 23.8944 9.4808 23.8944 8.1856C23.8944 6.89043 24.3866 5.69886 25.2932 4.79222C26.1998 3.88558 27.3914 3.39341 28.6866 3.39341C29.3083 3.39341 29.93 3.52293 30.5258 3.75606C31.0957 3.9892 31.6397 4.35186 32.08 4.79222L34.2818 2.59039C33.5566 1.86508 32.6758 1.26929 31.7174 0.880736C30.7589 0.492174 29.7486 0.284942 28.7125 0.284942C26.6143 0.284942 24.6197 1.11386 23.1432 2.59039C21.6666 4.06691 20.8378 6.06151 20.8378 8.15976C20.8378 10.2579 21.6666 12.2526 23.1432 13.729C24.6197 15.2056 26.6143 16.0345 28.7125 16.0345C29.0493 16.0345 29.386 16.0086 29.7228 15.9827C31.3288 15.7754 32.883 15.102 34.0746 13.9622C35.2921 12.7706 35.9915 11.2164 35.9915 9.50672V8.7296C35.9915 7.9525 35.3698 7.3308 34.5927 7.3308H28.7902V7.38261ZM37.7011 4.42957V15.9309H40.8874V10.491C40.8874 10.4134 40.8874 10.3098 40.9132 10.232V10.1284C40.9132 8.47056 42.2602 7.12357 43.9181 7.12357H44.7729V4.27414C44.6434 4.24824 44.488 4.24824 44.3585 4.24824C43.0114 4.24824 41.7422 4.86993 40.9391 5.93199L40.7578 6.16513V4.40366H37.7011V4.42957ZM74.7178 0V15.9309H77.904V9.3772C77.904 7.90069 79.0956 6.6832 80.5976 6.6832C82.0744 6.6832 83.292 7.87478 83.292 9.3772V15.905H86.4784V9.01456C86.4784 6.34646 84.328 4.19643 81.66 4.19643C80.3128 4.19643 79.0178 4.76631 78.1112 5.75066L77.9299 5.93199V0H74.7178ZM86.9184 4.42957L91.944 16.1122L91.892 16.2677C91.7104 16.6821 91.452 17.1484 91.0888 17.4333C90.752 17.6923 90.312 17.796 89.8976 17.796C89.5352 17.796 89.1984 17.7182 88.8616 17.5887C88.5504 17.4851 88.2656 17.3038 88.0328 17.1225L86.8928 19.3502C87.2816 19.687 87.7736 19.8942 88.2656 20.0496C88.8352 20.231 89.4312 20.3346 90.0272 20.3346C91.0376 20.3346 91.996 20.1014 92.8248 19.5315C93.7568 18.8839 94.3792 17.7701 94.7672 16.7339L100 4.45547H96.9696L93.576 12.4338L90.208 4.45547H86.9184V4.42957Z" fill="#251D63"/>
</g>
<defs>
<clipPath id="clip0_1_2550">
<rect width="100" height="20.8" fill="white"/>
</clipPath>
</defs>
</svg>

<svg xmlns="http://www.w3.org/2000/svg" width="304.762" height="64" fill="none" viewBox="0 0 100 21"><g clip-path="url(#a)"><path fill="#251D63" fill-rule="evenodd" d="M60.419 4.43v15.542h3.03v-5.207l.156.13a5.812 5.812 0 0 0 3.6 1.217 5.931 5.931 0 0 0 5.933-5.932 5.931 5.931 0 0 0-5.932-5.932 5.866 5.866 0 0 0-3.601 1.218l-.155.13V4.43h-3.031Zm2.927 5.75a3.295 3.295 0 0 1 3.29-3.29 3.295 3.295 0 0 1 3.29 3.29 3.294 3.294 0 0 1-3.29 3.29 3.294 3.294 0 0 1-3.29-3.29Zm-8.16 5.75h3.031V4.43h-3.03v1.165l-.156-.13a5.812 5.812 0 0 0-3.6-1.217 5.931 5.931 0 0 0-5.933 5.932 5.931 5.931 0 0 0 5.932 5.932 5.866 5.866 0 0 0 3.6-1.217l.156-.13v1.166Zm-3.16-9.04a3.294 3.294 0 0 1 3.29 3.29 3.294 3.294 0 0 1-3.29 3.29 3.294 3.294 0 0 1-3.29-3.29 3.294 3.294 0 0 1 3.29-3.29ZM10.761 1.243l-7.02 12.175c-.466.803-.181 1.917.648 2.383.803.467 1.917.182 2.383-.647l3.497-6.062 3.523-6.087c.466-.803.181-1.917-.648-2.383-.803-.467-1.917-.182-2.383.621Zm-7.02 0C4.207.44 5.321.155 6.124.622c.803.466 1.114 1.58.648 2.383L3.249 9.092c-.466.803-1.58 1.114-2.383.648C.063 9.248-.248 8.16.218 7.33l3.523-6.087Zm10.543 6.088c.466-.803 1.58-1.114 2.383-.648.803.466 1.114 1.58.648 2.383l-3.523 6.114c-.466.803-1.58 1.114-2.383.647-.803-.466-1.114-1.58-.648-2.383l3.523-6.113Zm14.506.052v3.108h3.912l-.052.13c-.155.44-.44.854-.777 1.165-.674.674-1.606 1.062-2.565 1.166-.207.026-.414.026-.621.026a4.782 4.782 0 0 1-3.394-1.399 4.738 4.738 0 0 1-1.399-3.393c0-1.296.493-2.487 1.4-3.394a4.738 4.738 0 0 1 3.393-1.399c.621 0 1.243.13 1.839.363.57.233 1.114.596 1.554 1.036l2.202-2.202A7.808 7.808 0 0 0 31.717.88a7.969 7.969 0 0 0-3.005-.595 7.86 7.86 0 0 0-5.569 2.305 7.86 7.86 0 0 0-2.305 5.57 7.86 7.86 0 0 0 2.305 5.569 7.86 7.86 0 0 0 5.57 2.306c.336 0 .673-.026 1.01-.052 1.606-.208 3.16-.881 4.352-2.02 1.217-1.192 1.916-2.747 1.916-4.456V8.73c0-.778-.621-1.4-1.398-1.4H28.79v.053Zm8.911-2.953v11.5h3.186v-5.439c0-.078 0-.181.026-.259v-.104a3.007 3.007 0 0 1 3.005-3.004h.855v-2.85c-.13-.026-.285-.026-.415-.026a4.282 4.282 0 0 0-3.419 1.684l-.181.233V4.404H37.7v.026ZM74.718 0v15.93h3.186V9.378a2.692 2.692 0 0 1 2.694-2.694 2.692 2.692 0 0 1 2.694 2.694v6.528h3.186v-6.89a4.81 4.81 0 0 0-4.818-4.819c-1.347 0-2.642.57-3.549 1.555l-.181.181V0h-3.212Zm12.2 4.43 5.026 11.682-.052.156c-.182.414-.44.88-.803 1.165-.337.26-.777.363-1.191.363-.363 0-.7-.078-1.036-.207a2.858 2.858 0 0 1-.83-.466l-1.14 2.227c.39.337.882.544 1.374.7.57.181 1.165.285 1.761.285 1.01 0 1.969-.234 2.798-.803.932-.648 1.554-1.762 1.942-2.798L100 4.455h-3.03l-3.394 7.979-3.368-7.979h-3.29V4.43Z" clip-rule="evenodd"/></g><defs><clipPath id="a"><path fill="#fff" d="M0 0h100v20.8H0z"/></clipPath></defs></svg>
